static/images/mobile/copyright/wikipedia-wordmark-pcd.svg

<?xml version="1.0" encoding="UTF-8"?>
<svg width="119px" height="18px" viewBox="0 0 119 18" version="1.1" xmlns="http://www.w3.org/2000/svg" xmlns:xlink="http://www.w3.org/1999/xlink">
    <title>pcd-wordmark</title>
    <g id="Page-1" stroke="none" stroke-width="1" fill="none" fill-rule="evenodd">
        <path d="M17.5451649,0.0358341424 C17.615645,0.0358829349 17.6857877,0.0359407479 17.7553889,0.0360063512 L18.3616658,0.0367739104 C18.4261802,0.0368751855 18.4895405,0.0369805609 18.5515426,0.0370888064 L18.905622,0.0377628808 C18.9613742,0.0378776867 19.0153598,0.0379929025 19.0673744,0.0381072984 L19.3541788,0.0387739924 C19.3974933,0.0388801878 19.4384286,0.038983103 19.4767805,0.0390815081 L19.7999308,0.0399671532 C19.8287658,0.0400524376 19.844,0.0401 19.844,0.0401 L19.901,0.0921 L19.901,0.5881 C19.901,0.7251 19.824,0.7931 19.672,0.7931 C18.926,0.8281 18.773,0.9021 18.5,1.2951 C18.351,1.5091 18.057,1.9701 17.752,2.4881 L15.134,7.3841 L15.1183918,7.41669251 C15.1061634,7.44222008 15.0869138,7.48239118 15.0612255,7.53595795 L18.26,14.0851 L18.454,14.1381 L23.494,2.1771 C23.669,1.6951 23.642,1.3531 23.417,1.1521 C23.191,0.9571 23.032,0.8401 22.448,0.8161 L21.975,0.7931 C21.917,0.7931 21.862,0.7721 21.809,0.7321 C21.757,0.6951 21.73,0.6461 21.73,0.5871 L21.73,0.0891 L21.802,0.0381 L27.496,0.0381 L27.554,0.0891 L27.554,0.5871 C27.554,0.7221 27.477,0.7901 27.325,0.7901 C26.579,0.8231 26.026,0.9851 25.668,1.2741 C25.309,1.5651 25.029,1.9651 24.828,2.4871 C24.828,2.4871 23.0868606,6.47199906 21.3737253,10.3691292 L21.1037209,10.9831424 C20.1164495,13.2274954 19.1697742,15.3705839 18.607,16.6221 C18,17.7781 17.403,17.6721 16.878,16.5891 C16.2442857,15.2839571 14.9529388,12.4620796 13.9624665,10.2830475 L13.8524957,10.0410349 C12.7808262,12.2531459 11.3122659,15.2518974 10.584,16.6021 C9.876,17.8331 9.293,17.6721 8.829,16.6341 C7.218,12.8331 3.91,6.1591 2.353,2.4191 C2.065,1.7301 1.848,1.2881 1.643,1.1131 C1.437,0.9401 1.009,0.8361 0.358,0.8011 C0.119,0.7751 0,0.7171 0,0.6231 L0,0.1021 L0.058,0.0511 C0.151529412,0.0505705882 0.276745675,0.0501346021 0.427328821,0.0497796764 L0.760445044,0.0491742418 C0.820977305,0.0490901282 0.883859963,0.0490141054 0.948858946,0.0489457154 L3.79859638,0.0489896804 C3.88068064,0.0490385304 3.96207236,0.0490895176 4.04253745,0.049142184 L4.94865998,0.0498254732 C5.01796692,0.0498842459 5.08541095,0.0499428659 5.15075799,0.0500008752 L6.13450163,0.0509722267 C6.15902127,0.0509992469 6.17980541,0.0510224506 6.19661999,0.05104138 L6.248,0.0511 L6.306,0.1021 L6.306,0.5981 C6.306,0.7351 6.219,0.8011 6.048,0.8011 L5.402,0.8281 C4.848,0.8511 4.571,1.0171 4.571,1.3241 C4.571,1.4671 4.629,1.7001 4.758,2.0121 C5.998,5.0341 10.281,14.0651 10.281,14.0651 L10.438,14.1061 L13.1984408,8.59860927 C12.8610988,7.85333978 12.646,7.3761 12.646,7.3761 L10.748,3.6461 C10.748,3.6461 10.381,2.9001 10.256,2.6521 C9.422,1.0001 9.44,0.9121 8.597,0.8001 C8.361,0.7691 8.239,0.7391 8.239,0.6221 L8.239,0.0991 L8.31,0.0481 L8.46832537,0.0479065926 L9.61412204,0.0470012593 C9.68437852,0.0469620741 9.75534593,0.0469245926 9.82682963,0.0468887407 L13.222,0.0461 L13.352,0.0891 L13.352,0.6101 C13.352,0.7291 13.267,0.7901 13.094,0.7901 L12.738,0.8411 C11.838,0.9111 11.985,1.2791 12.583,2.4701 L14.404,6.195 L16.418,2.1781 C16.7309286,1.4956 16.6937857,1.28819694 16.5755918,1.12593856 L16.547,1.0891 C16.467,0.9941 16.199,0.8401 15.616,0.8171 L15.387,0.7921 C15.329,0.7921 15.275,0.7721 15.222,0.7331 C15.17,0.6961 15.144,0.6481 15.144,0.5871 L15.144,0.0911 L15.215,0.0401 C15.5592069,0.0376862069 16.0069489,0.0364376932 16.4881886,0.0359325475 Z M28.647,5.3031 C29.349,5.3031 31.351,5.2511 31.351,5.2511 L31.377,5.3031 L31.377,5.8751 C31.377,5.9531 31.325,6.0051 31.221,6.0051 L30.675,6.0581 C29.869,6.1351 29.583,6.3441 29.583,6.8651 L29.583,15.5231 C29.583,16.0951 29.843,16.4331 30.675,16.5111 L31.221,16.5641 C31.299,16.5641 31.377,16.6151 31.377,16.7191 L31.377,17.2651 L31.351,17.3181 C31.351,17.3181 29.5505537,17.2698087 28.6858657,17.2654186 L28.569,17.2651 C27.841,17.2651 25.813,17.3181 25.813,17.3181 L25.761,17.2651 L25.761,16.7191 C25.761,16.6151 25.839,16.5641 25.943,16.5641 L26.463,16.5111 C27.321,16.4331 27.581,16.0171 27.581,15.5231 L27.581,6.8651 C27.581,6.2951 27.268,6.1361 26.463,6.0601 L25.943,6.0061 C25.839,6.0061 25.761,5.9821 25.761,5.9021 L25.761,5.3031 L25.787,5.2511 C25.787,5.2511 27.841,5.3031 28.647,5.3031 Z M37.256,15.5231 C37.256,16.0951 37.594,16.3811 38.348,16.5111 L38.634,16.5641 C38.712,16.5891 38.79,16.6151 38.79,16.7191 L38.79,17.2651 L38.764,17.3181 C38.764,17.3181 37.126,17.2651 36.346,17.2651 C35.618,17.2651 33.486,17.3181 33.486,17.3181 L33.434,17.2651 L33.434,16.7191 C33.434,16.6151 33.512,16.5641 33.616,16.5641 L34.136,16.5111 C34.916,16.4331 35.254,16.0171 35.254,15.5231 L35.254,6.8651 C35.254,6.2951 34.968,6.1361 34.136,6.0601 L33.616,6.0061 C33.512,6.0061 33.434,5.9821 33.434,5.9021 L33.434,5.3031 L33.46,5.2511 C33.46,5.2511 35.592,5.3031 36.398,5.3031 C37.127,5.3031 38.764,5.2511 38.764,5.2511 L38.79,5.3031 L38.79,5.8751 C38.79,5.9531 38.738,5.9791 38.634,6.0051 L38.348,6.0581 C37.542,6.2131 37.256,6.3441 37.256,6.8651 L37.256,10.7921 C38.114,10.7921 38.608,10.3521 39.752,9.1281 C40.792,7.9821 41.598,7.0241 41.598,6.5271 C41.598,6.3181 41.364,6.0861 40.844,6.0061 C40.74,5.9821 40.688,5.9541 40.688,5.8761 L40.688,5.2761 L40.714,5.2521 C40.714,5.2521 42.82,5.3041 43.574,5.3041 C44.25,5.3041 45.394,5.2521 45.394,5.2521 L45.472,5.2761 L45.472,5.8761 C45.472,5.9541 45.394,6.0061 45.264,6.0061 C44.25,6.0841 43.548,6.1361 42.612,7.2021 L40.376,9.7741 C39.934,10.2441 39.778,10.5281 39.778,10.7371 C39.778,10.8931 39.882,11.0221 40.012,11.1781 L43.938,15.9101 C44.25,16.2731 44.874,16.4301 45.394,16.5331 L45.524,16.5581 C45.602,16.5831 45.706,16.6351 45.706,16.7131 L45.706,17.2591 L45.628,17.2851 C45.628,17.2851 44.25,17.2591 43.522,17.2591 C42.872,17.2591 41.936,17.2851 41.936,17.2851 L41.91,17.2591 L41.91,16.9471 C41.91,16.6081 41.884,16.3241 41.52,15.9081 L38.634,12.3191 C38.244,11.7981 37.828,11.6701 37.256,11.6701 L37.256,15.5231 L37.256,15.5231 Z M51.273,15.5231 C51.273,16.0951 51.533,16.4331 52.365,16.5111 L52.911,16.5641 C52.989,16.5641 53.067,16.6151 53.067,16.7191 L53.067,17.2651 L53.041,17.3181 C53.041,17.3181 51.065,17.2651 50.259,17.2651 C49.531,17.2651 47.503,17.3181 47.503,17.3181 L47.451,17.2651 L47.451,16.7191 C47.451,16.6151 47.529,16.5641 47.633,16.5641 L48.153,16.5111 C49.011,16.4331 49.271,16.0171 49.271,15.5231 L49.271,6.8651 C49.271,6.2951 48.959,6.1361 48.153,6.0601 L47.633,6.0061 C47.529,6.0061 47.451,5.9821 47.451,5.9021 L47.451,5.3031 L47.477,5.2511 C47.477,5.2511 49.531,5.3031 50.337,5.3031 C51.039,5.3031 53.041,5.2511 53.041,5.2511 L53.067,5.3031 L53.067,5.8751 C53.067,5.9531 53.015,6.0051 52.911,6.0051 L52.365,6.0581 C51.559,6.1351 51.273,6.3441 51.273,6.8651 L51.273,15.5231 Z M56.891,6.9161 C56.891,6.1101 56.553,6.0841 55.331,6.0061 C55.175,6.0061 55.149,5.9291 55.149,5.8761 L55.149,5.2781 L55.201,5.2521 C55.591,5.2521 57.125,5.3041 57.879,5.3041 C58.607,5.3041 59.647,5.2521 60.609,5.2521 C64.299,5.2521 64.975,7.0711 64.975,8.4251 C64.975,9.9861 64.221,12.4291 60.531,12.4291 C59.881,12.4291 59.361,12.3761 58.892,12.1691 L58.892,15.6511 C58.892,16.2221 59.204,16.3541 60.037,16.4831 L60.558,16.5611 C60.662,16.5861 60.741,16.6141 60.741,16.7161 L60.741,17.2621 L60.717,17.3151 C60.717,17.3151 58.636,17.2621 57.83,17.2621 C57.102,17.2621 55.152,17.3151 55.152,17.3151 L55.126,17.2621 L55.126,16.7161 C55.126,16.6121 55.178,16.5861 55.282,16.5611 L55.828,16.4831 C56.634,16.3791 56.894,16.1451 56.894,15.6511 L56.891,6.9161 L56.891,6.9161 L56.891,6.9161 Z M58.893,11.4411 C59.413,11.6501 60.063,11.6751 60.583,11.6751 C62.144,11.6751 62.895,10.7371 62.895,8.7371 C62.895,6.5011 61.881,6.0071 60.453,6.0071 C59.204,6.0071 58.892,6.2411 58.892,6.9171 L58.893,11.4411 L58.893,11.4411 Z M79.231,16.5641 L79.829,16.5111 C80.61,16.4331 80.87,16.1991 80.87,15.3941 L80.87,6.8141 C80.87,6.1361 80.686,6.1361 79.829,6.0601 L79.259,6.0061 C79.155,6.0061 79.075,5.9541 79.075,5.8761 L79.075,5.3041 L79.1,5.2521 C79.1,5.2521 81.389,5.3041 81.858,5.3041 C82.35,5.3041 84.614,5.2521 85.29,5.2521 C89.632,5.2521 91.765,7.9561 91.765,11.4141 C91.765,15.9651 88.54,17.3151 85.656,17.3151 C83.576,17.3151 82.667,17.2621 81.861,17.2621 C81.08,17.2621 79.103,17.3151 79.103,17.3151 L79.078,17.2621 L79.078,16.7161 C79.075,16.6421 79.128,16.5641 79.231,16.5641 Z M85.03,16.5641 C87.889,16.5641 89.503,15.5001 89.503,11.8571 C89.503,9.1541 88.904,6.0061 84.536,6.0061 C83.522,6.0061 82.872,6.1621 82.872,6.8141 L82.872,15.3941 C82.872,16.1201 83.053,16.5641 85.03,16.5641 Z M97.903,15.5231 C97.903,16.0951 98.163,16.4331 98.995,16.5111 L99.541,16.5641 C99.619,16.5641 99.697,16.6151 99.697,16.7191 L99.697,17.2651 L99.671,17.3181 C99.671,17.3181 97.695,17.2651 96.89,17.2651 C96.161,17.2651 94.134,17.3181 94.134,17.3181 L94.081,17.2651 L94.081,16.7191 C94.081,16.6151 94.159,16.5641 94.263,16.5641 L94.784,16.5111 C95.641,16.4331 95.902,16.0171 95.902,15.5231 L95.902,6.8651 C95.902,6.2951 95.589,6.1361 94.784,6.0601 L94.263,6.0061 C94.159,6.0061 94.081,5.9821 94.081,5.9021 L94.081,5.3031 L94.107,5.2511 C94.107,5.2511 96.161,5.3031 96.965,5.3031 C97.666,5.3031 99.67,5.2511 99.67,5.2511 L99.694,5.3031 L99.694,5.8751 C99.694,5.9531 99.64,6.0051 99.538,6.0051 L98.992,6.0581 C98.185,6.1351 97.9,6.3441 97.9,6.8651 L97.903,15.5231 L97.903,15.5231 L97.903,15.5231 Z M105.913,16.5111 L106.667,16.5641 C106.771,16.5641 106.875,16.6421 106.875,16.7711 L106.875,17.2651 L106.823,17.3181 C106.823,17.3181 103.989,17.2651 103.365,17.2651 C102.688,17.2651 101.024,17.3181 101.024,17.3181 L100.971,17.2651 L100.971,16.7711 C100.971,16.6421 101.049,16.5641 101.18,16.5641 C102.325,16.4861 102.973,16.2771 103.701,14.6131 L109.472,1.0921 C109.757,0.4161 109.966,0.1551 110.358,0.1551 C110.72,0.1551 110.851,0.4161 111.058,0.9361 L116.388,15.0281 C116.753,16.0431 117.274,16.4321 118.314,16.5361 L118.599,16.5611 C118.73,16.5611 118.86,16.6381 118.86,16.7701 L118.86,17.2621 L118.782,17.3151 C118.782,17.3151 116.78,17.2621 115.765,17.2621 C114.855,17.2621 112.306,17.3151 112.306,17.3151 L112.282,17.2621 L112.282,16.7701 C112.282,16.6381 112.334,16.5611 112.467,16.5611 L113.195,16.5081 C114.182,16.4311 114.548,16.1171 114.287,15.3911 L112.701,10.9951 L107.291,10.9951 C106.667,10.9951 106.511,11.0991 106.382,11.4351 L104.873,15.2061 C104.613,15.8601 104.951,16.4331 105.913,16.5111 Z M112.283,9.9051 L109.761,2.9641 L109.709,2.9641 L107.109,9.5681 C107.005,9.8301 107.186,9.9061 107.758,9.9061 L112.283,9.9061 L112.283,9.9051 Z M69.453,17.2651 C68.673,17.2651 66.88,17.3181 66.88,17.3181 L66.853,17.2651 L66.853,16.6931 C66.853,16.6421 66.88,16.5641 67.009,16.5641 L67.609,16.5111 C68.416,16.4331 68.65,15.9131 68.65,15.3941 L68.65,6.8141 C68.65,6.2141 68.338,6.1111 67.609,6.0601 L67.009,6.0061 C66.853,5.9821 66.853,5.9291 66.853,5.9021 L66.853,5.3031 L66.88,5.2511 C66.88,5.2511 68.907,5.3031 69.687,5.3031 L73.509,5.3031 C74.289,5.3031 76.136,5.2511 76.136,5.2511 L76.19,5.3031 C76.214,6.4211 76.396,7.4371 76.58,8.4241 L75.932,8.5281 C75.647,7.5651 75.153,6.1881 73.489,6.1881 L71.409,6.1881 C70.915,6.1881 70.655,6.3701 70.655,6.8111 L70.655,10.5821 L72.604,10.5821 C73.333,10.5821 73.514,10.2701 73.619,9.7501 L73.774,9.2041 C73.774,9.1261 73.827,9.0731 73.93,9.0731 L74.37,9.0731 C74.424,9.0731 74.424,9.1001 74.424,9.1511 C74.37,9.7221 74.268,10.4521 74.268,11.0761 C74.268,11.7251 74.372,12.2721 74.424,12.8701 L74.37,12.9231 L73.93,12.9231 C73.801,12.9231 73.746,12.8701 73.746,12.7921 L73.616,12.2211 C73.512,11.7001 73.278,11.4141 72.599,11.4141 L70.651,11.4141 L70.651,15.3931 C70.651,15.8851 70.934,16.3791 71.405,16.3791 L73.875,16.3791 C75.201,16.3791 75.931,15.5471 76.241,14.1931 L76.889,14.2711 L76.368,17.2601 L76.316,17.3121 C76.316,17.3121 74.782,17.2601 74.002,17.2601 L69.453,17.2651 L69.453,17.2651 L69.453,17.2651 Z M72.764103,0 C72.919804,0 73.542612,0.02595 74.101023,0.59686 L74.174069,0.88231 L71.380087,3.70993 C71.014861,4.09822 70.821675,4.20299 70.650595,4.20299 C70.480477,4.20299 70.310358,4.04728 70.310358,3.86467 C70.310358,3.57441 70.390131,3.47061 70.587161,3.13806 L72.423865,0.05094 C72.497872,0.02691 72.643001,0 72.764103,0 Z" id="pcd-wordmark" fill="#000000" fill-rule="nonzero"></path>
    </g>
</svg>

<svg xmlns="http://www.w3.org/2000/svg" width="119" height="18"><path fill="#000" fill-rule="nonzero" d="M17.545.036h.817l.19.001h.354l.161.001h.287l.123.001.323.001h.044l.057.052v.496c0 .137-.077.205-.229.205-.746.035-.899.11-1.172.502-.149.214-.443.675-.748 1.193l-2.618 4.896-.016.033-.057.119 3.199 6.55.194.052 5.04-11.96c.175-.483.148-.825-.077-1.026-.226-.195-.385-.312-.969-.336l-.473-.023a.272.272 0 0 1-.166-.06.172.172 0 0 1-.079-.146V.09l.072-.05h5.694l.058.05v.498c0 .135-.077.203-.229.203-.746.033-1.299.195-1.657.484-.359.291-.639.691-.84 1.213 0 0-1.741 3.985-3.454 7.882l-.27.614a902.684 902.684 0 0 1-2.497 5.64c-.607 1.155-1.204 1.05-1.729-.034-.634-1.305-1.925-4.127-2.916-6.306l-.11-.242c-1.071 2.212-2.54 5.21-3.268 6.561-.708 1.231-1.291 1.07-1.755.032C7.218 12.834 3.91 6.16 2.353 2.42c-.288-.689-.505-1.13-.71-1.306C1.437.94 1.009.836.358.801.119.775 0 .717 0 .623v-.52L.058.05.428.05H.76L.95.048h4L5.15.05l.984.001H6.248l.058.051v.496c0 .137-.087.203-.258.203l-.646.027c-.554.023-.831.19-.831.496 0 .143.058.376.187.688 1.24 3.022 5.523 12.053 5.523 12.053l.157.041 2.76-5.507-.552-1.223-1.898-3.73s-.367-.746-.492-.994C9.422 1 9.44.912 8.597.8 8.361.77 8.239.74 8.239.622V.1L8.31.05l.158-.001L9.614.047h3.608l.13.042V.61c0 .12-.085.18-.258.18l-.356.051c-.9.07-.753.438-.155 1.63l1.821 3.724 2.014-4.017c.313-.682.276-.89.158-1.052l-.029-.037c-.08-.095-.348-.249-.931-.272l-.229-.025a.273.273 0 0 1-.165-.059.17.17 0 0 1-.078-.146V.091l.071-.05c.344-.003.792-.005 1.273-.005Zm11.102 5.267c.702 0 2.704-.052 2.704-.052l.026.052v.572c0 .078-.052.13-.156.13l-.546.053c-.806.077-1.092.286-1.092.807v8.658c0 .572.26.91 1.092.988l.546.053c.078 0 .156.051.156.155v.546l-.026.053s-1.8-.048-2.665-.053h-.117c-.728 0-2.756.053-2.756.053l-.052-.053v-.546c0-.104.078-.155.182-.155l.52-.053c.858-.078 1.118-.494 1.118-.988V6.865c0-.57-.313-.729-1.118-.805l-.52-.054c-.104 0-.182-.024-.182-.104v-.599l.026-.052s2.054.052 2.86.052Zm8.609 10.22c0 .572.338.858 1.092.988l.286.053c.078.025.156.051.156.155v.546l-.026.053s-1.638-.053-2.418-.053c-.728 0-2.86.053-2.86.053l-.052-.053v-.546c0-.104.078-.155.182-.155l.52-.053c.78-.078 1.118-.494 1.118-.988V6.865c0-.57-.286-.729-1.118-.805l-.52-.054c-.104 0-.182-.024-.182-.104v-.599l.026-.052s2.132.052 2.938.052c.729 0 2.366-.052 2.366-.052l.026.052v.572c0 .078-.052.104-.156.13l-.286.053c-.806.155-1.092.286-1.092.807v3.927c.858 0 1.352-.44 2.496-1.664 1.04-1.146 1.846-2.104 1.846-2.6 0-.21-.234-.442-.754-.522-.104-.024-.156-.052-.156-.13v-.6l.026-.024s2.106.052 2.86.052c.676 0 1.82-.052 1.82-.052l.078.024v.6c0 .078-.078.13-.208.13-1.014.078-1.716.13-2.652 1.196l-2.236 2.572c-.442.47-.598.754-.598.963 0 .156.104.285.234.441l3.926 4.732c.312.363.936.52 1.456.623l.13.025c.078.025.182.077.182.155v.546l-.078.026s-1.378-.026-2.106-.026c-.65 0-1.586.026-1.586.026l-.026-.026v-.312c0-.339-.026-.623-.39-1.039l-2.886-3.589c-.39-.52-.806-.649-1.378-.649v3.853Zm14.017 0c0 .572.26.91 1.092.988l.546.053c.078 0 .156.051.156.155v.546l-.026.053s-1.976-.053-2.782-.053c-.728 0-2.756.053-2.756.053l-.052-.053v-.546c0-.104.078-.155.182-.155l.52-.053c.858-.078 1.118-.494 1.118-.988V6.865c0-.57-.312-.729-1.118-.805l-.52-.054c-.104 0-.182-.024-.182-.104v-.599l.026-.052s2.054.052 2.86.052c.702 0 2.704-.052 2.704-.052l.026.052v.572c0 .078-.052.13-.156.13l-.546.053c-.806.077-1.092.286-1.092.807v8.658Zm5.618-8.607c0-.806-.338-.832-1.56-.91-.156 0-.182-.077-.182-.13v-.598l.052-.026c.39 0 1.924.052 2.678.052.728 0 1.768-.052 2.73-.052 3.69 0 4.366 1.82 4.366 3.173 0 1.561-.754 4.004-4.444 4.004-.65 0-1.17-.053-1.639-.26v3.482c0 .571.312.703 1.145.832l.521.078c.104.025.183.053.183.155v.546l-.024.053s-2.081-.053-2.887-.053c-.728 0-2.678.053-2.678.053l-.026-.053v-.546c0-.104.052-.13.156-.155l.546-.078c.806-.104 1.066-.338 1.066-.832l-.003-8.735Zm2.002 4.525c.52.21 1.17.234 1.69.234 1.561 0 2.312-.938 2.312-2.938 0-2.236-1.014-2.73-2.442-2.73-1.249 0-1.561.234-1.561.91l.001 4.524Zm20.338 5.123.598-.053c.781-.078 1.041-.312 1.041-1.117v-8.58c0-.678-.184-.678-1.041-.754l-.57-.054c-.104 0-.184-.052-.184-.13v-.572l.025-.052s2.289.052 2.758.052c.492 0 2.756-.052 3.432-.052 4.342 0 6.475 2.704 6.475 6.162 0 4.551-3.225 5.901-6.109 5.901-2.08 0-2.989-.053-3.795-.053-.781 0-2.758.053-2.758.053l-.025-.053v-.546a.145.145 0 0 1 .153-.152Zm5.799 0c2.859 0 4.473-1.064 4.473-4.707 0-2.703-.599-5.85-4.967-5.85-1.014 0-1.664.155-1.664.807v8.58c0 .726.181 1.17 2.158 1.17Zm12.873-1.04c0 .571.26.91 1.092.987l.546.053c.078 0 .156.051.156.155v.546l-.026.053s-1.976-.053-2.781-.053c-.729 0-2.756.053-2.756.053l-.053-.053v-.546c0-.104.078-.155.182-.155l.521-.053c.857-.078 1.118-.494 1.118-.988V6.865c0-.57-.313-.729-1.118-.805l-.521-.054c-.104 0-.182-.024-.182-.104v-.599l.026-.052s2.054.052 2.858.052c.701 0 2.705-.052 2.705-.052l.024.052v.572c0 .078-.054.13-.156.13l-.546.053c-.807.077-1.092.286-1.092.807l.003 8.658Zm8.01.987.754.053c.104 0 .208.078.208.207v.494l-.052.053s-2.834-.053-3.458-.053c-.677 0-2.341.053-2.341.053l-.053-.053v-.494c0-.129.078-.207.209-.207 1.145-.078 1.793-.287 2.521-1.95l5.771-13.522c.285-.676.494-.937.886-.937.362 0 .493.261.7.781l5.33 14.092c.365 1.015.886 1.404 1.926 1.508l.285.025c.131 0 .261.077.261.21v.491l-.078.053s-2.002-.053-3.017-.053a275 275 0 0 0-3.459.053l-.024-.053v-.492c0-.132.052-.209.185-.209l.728-.053c.987-.077 1.353-.39 1.092-1.117l-1.586-4.396h-5.41c-.624 0-.78.104-.909.44l-1.509 3.771c-.26.654.078 1.227 1.04 1.305Zm6.37-6.606-2.522-6.94h-.052l-2.6 6.603c-.104.262.077.338.649.338h4.525Zm-42.83 7.36c-.78 0-2.573.053-2.573.053l-.027-.053v-.572c0-.05.027-.129.156-.129l.6-.053c.807-.078 1.041-.598 1.041-1.117v-8.58c0-.6-.312-.703-1.041-.754l-.6-.054c-.156-.024-.156-.077-.156-.104v-.599l.027-.052s2.027.052 2.807.052h3.822c.78 0 2.627-.052 2.627-.052l.054.052c.024 1.118.206 2.134.39 3.121l-.648.104c-.285-.963-.779-2.34-2.443-2.34h-2.08c-.494 0-.754.182-.754.623v3.771h1.949c.729 0 .91-.312 1.015-.832l.155-.546c0-.078.053-.13.156-.13h.44c.054 0 .054.026.054.077-.054.571-.156 1.301-.156 1.925 0 .65.104 1.196.156 1.794l-.054.053h-.44c-.129 0-.184-.053-.184-.13l-.13-.572c-.104-.52-.338-.807-1.017-.807h-1.948v3.98c0 .491.283.985.754.985h2.47c1.326 0 2.056-.832 2.366-2.186l.648.078-.521 2.99-.052.051s-1.534-.052-2.314-.052l-4.549.005ZM72.764 0c.156 0 .779.026 1.337.597l.073.285L71.38 3.71c-.365.388-.558.493-.73.493a.354.354 0 0 1-.34-.338c0-.29.08-.394.277-.727L72.424.051c.074-.024.219-.051.34-.051Z"/></svg>
